X:1
T:Caresse
T:Caresse
T:Révision par ROBERT CABY
T:Erik Satie (1866-1925)
C:Erik Satie (1866-1925)
%%score { ( 1 2 ) | ( 3 4 ) }
L:1/8
Q:1/4=71
M:4/4
K:C
V:1 treble nm="Piano" snm="Pno."
V:2 treble 
V:3 bass 
V:4 bass 
V:1
"_doux""^Très modéré, presque lent"!p! (e2 f2 d2- d2- | d4- d2) (e2 | A2 [Gc]2 [Fd]4- | %3
 [Fd]2) ([Gc]2 [Fd]4) | z2 (g2 a2 f2) | z2 g2 a2 (d2 | c2 [Ad]2 [Ge]4- | [Ge]2) ([Ad]2 [Ge]4) | %8
 z2 (=f2 g2 Ad | [Ge]2 [DG]2 [CA]4- | [CA]2) ([DG]2 [CA]4) | z2 (=f2 g2 Ad | %12
 [Ge]2 [Ec]2{/e} ([^Fd]2 [=F_B]2) | [Ec]4) z4 | %14
[M:2/4]!p! (([Ff]/4c/4))"_léger"[Ff]/([_E_e]/4=B/4)[Ee]/- [Ee]([Ff]/4c/4)[Ff]/ | %15
 ([_E_e]/4=B/4)[Ee]/([Ff]/4c/4)[Ff]/- [Ff][_E_e]/4=B/4[Ee]/ | [Ff] z z2 ||[M:4/4] z8 | %18
"_doux" (=e^f =fe d2) F2 | z4 z (_e=eA) | z2 [Gc]2 [Fd]4- | [Fd]2 ([Gc]2 [Fd]4) | %22
 z2 (g_a =a^g =f2) | z2 (=g2 a2 d2 | c2 [Ad]2 [Ge]4- | [Ge]2) ([Ad]2 [Ge]4) | z2 (=f2 g2 Ad | %27
 [Ge]2 [DG]2 [CA]4- | [CA]2) ([DG]2 [CA]4) | z2 (=f2 g2 Ad | [Ge]2 [Ec]2{/e} [^Fd]2 [=F_B]2 | %31
 [Ec]4) z4 |] %32
V:2
 x6 F2 | x6 F2 | x8 | x8 | x2 [DG]2 [CEA]2 [CF]2 | x2 [DG]2 [CEA]2 [CF]2 | x8 | x8 | %8
 x2 [C=F]2 [B,E]2 D2 | x8 | x8 | x2 [C=F]2 [B,E]2 D2 | x8 | x8 |[M:2/4] x4 | x4 | x4 ||[M:4/4] x8 | %18
 x8 | x8 | x8 | x8 | x2 [DG]2 [CEA]2 [CF]2 | x2 [DG]2 [CEA]2 [CF]2 | x8 | x8 | %26
 x2 [C=F]2 [B,E]2 D2 | x8 | x8 | x2 [CF]2 [B,E]2 D2 | x8 | x8 |] %32
V:3
 z2 ([D,G,B,]4 [A,C]2) | z2 ([D,G,B,]4 [A,C]2) | z2 ([E,_B,]2 [A,C]4) | ([A,C]2 [E,_B,]2 [A,C]4) | %4
 D,,8 | D,,8 | G,,8 | ([B,D]2 [^F,C]2 [B,D]4) | E,,8 | [E,B,]2 [B,,F,]2 [E,G,]4- | %10
 [E,G,]2 ([B,,F,]2 [E,G,]4) | E,,8 | [E,B,]2 [A,,E,C]2 [D,B,]2 [G,,D,_B,]2 | [C,G,]4 z4 | %14
[M:2/4] [F,,C,A,][C,G,]- [C,G,][F,,C,A,] | [C,G,][F,,C,A,]- [F,,C,A,][C,G,] | [F,,C,A,] z z2 || %17
[M:4/4]!p! D,,4 z4 | G,,8 | G,,8 | z2 ([E,_B,]2 [A,C]4) | ([A,C]2 [E,_B,]2 [A,C]4) | D,,8 | D,,8 | %24
 z2 ([^F,C]2 [B,D]4) | ([B,D]2 [^F,C]2 [B,D]4) | E,,8 | [E,B,]2 [B,,F,]2 [E,G,]4- | %28
 [E,G,]2 ([B,,F,]2 [E,G,]4) | E,,8 | [E,B,]2 [A,,E,C]2 [D,B,]2 [G,,D,_B,]2 | [C,G,]4 z4 |] %32
V:4
 G,,8 | G,,8 | D,,8 | x8 | x2 (=B,2 x2 A,2) | x2 (B,2 x2 A,2) | x2 ([^F,C]2 [B,D]4) | x8 | %8
 z2 A,2 G,2 [=F,A,]2 | x8 | x8 | z2 A,2 G,2 [F,A,]2 | x8 | x8 |[M:2/4] x4 | x4 | x4 ||[M:4/4] x8 | %18
 x2 ([D,G,B,]4 [A,C]2) | x2 ([D,G,B,]4 [A,CF]2) | D,,8 | x8 | z2 =B,2 x2 A,2 | x2 (B,2 x2 A,2) | %24
 G,,8 | x8 | z2 A,2 G,2 [F,A,]2 | x8 | x8 | z2 A,2 G,2 [F,A,]2 | x8 | x8 |] %32

